!!!COM: Bach, Johann Sebastian
!!!OTL: 183. Nun freut euch, lieben Christen, g'mein
!!!ONM: No. 183
!!!OCL: Erk
!!!SCA: BWV 388
!!!YOE: Riemenschneider, Albert
!!!OPR: 371 Harmonized Chorales and 69 Chorale Melodies with Figured Bass
!!!OPT: Bach Chorale Harmonizations
**harm	**root	**kern	**kern	**kern	**kern
!	!	!bass	!tenor	!alto	!sprno
*Iorgan	*Iorgan	*Iorgan	*Iorgan	*Iorgan	*Iorgan
*>[A,A,B]	*>[A,A,B]	*>[A,A,B]	*>[A,A,B]	*>[A,A,B]	*>[A,A,B]
*>norep[A,B]	*>norep[A,B]	*>norep[A,B]	*>norep[A,B]	*>norep[A,B]	*>norep[A,B]
*>A	*>A	*>A	*>A	*>A	*>A
*k[b-]	*k[b-]	*k[b-]	*k[b-]	*k[b-]	*k[b-]
*F:	*F:	*F:	*F:	*F:	*F:
*met(c)	*met(c)	*met(c)	*met(c)	*met(c)	*met(c)
*M4/4	*M4/4	*M4/4	*M4/4	*M4/4	*M4/4
*MM60	*MM60	*MM60	*MM60	*MM60	*MM60
I	4GG	8FF	8A	4c	4f
.	.	8GG	8G	.	.
=1	=1	=1	=1	=1	=1
Ib	4GG	8AA	4F	4c	4f
.	.	8BB-	.	.	.
V	4DD	8C	4E	4G	4c
.	.	8BB-	.	.	.
Ib	4GG	4AA	[4F	4c	4f
viib	4FF#	4GG	8F]	4g	4b-
.	.	.	8E	.	.
=2	=2	=2	=2	=2	=2
I	4GG	8FF	4.F	4c	4a
.	.	8AA	.	.	.
V	4DD	4C	.	8.c	4g
.	.	.	8E	.	.
.	.	.	.	16B-	.
I;	4GG;	4FF;	4C;	4A;	4f;
vi	4EE	4D	4F	8A	4f
.	.	.	.	8B	.
=3	=3	=3	=3	=3	=3
V	8DD	4C	8E	8c	8g
viioD7c/ii	8GG#	.	8F#	8e-	8a
ii	4AA	4GG	4G	8d	4b-
.	.	.	.	8e	.
Ib	4GG	8AA	8C	4f	4a
.	.	8BB-	8D	.	.
V	4DD	4C	4E	8c	4g
.	.	.	.	16G	.
.	.	.	.	16A	.
=4	=4	=4	=4	=4	=4
IV	4CC	8BB-	4F	2B-	4d
.	.	8AA	.	.	.
viib	4FF#	4GG	4G	.	4e
I;	4GG;	4FF;	4C;	4A;	4f;
=:|!	=:|!	=:|!	=:|!	=:|!	=:|!
*>B	*>B	*>B	*>B	*>B	*>B
!! Continuing.
I	4GG	8F	4A	4c	4f
.	.	8E	.	.	.
=5	=5	=5	=5	=5	=5
IVb	8CC	8D	8d	8f	4b-
V7b	8DD	8E	8c	[8g	.
I	4GG	[4F	4c	8g]	4a
.	.	.	.	16f	.
.	.	.	.	16e	.
V7d/V	4AA	8F]	4B	4d	4g
.	.	16G	.	.	.
.	.	16F	.	.	.
Vb	8DD	8E	4c	8g	4cc
iii	8BB	8A	.	8e	.
=6	=6	=6	=6	=6	=6
!!linebreak: 2
vi7b	4EE	4F	8A	8d	4cc
.	.	.	8D	[8f	.
V7/V	4AA	8G	4G	8f]	4b
.	.	8GG	.	16e	.
.	.	.	.	16d	.
V;	4DD;	4C;	4G;	4e;	4cc;
Ib	4GG	4AA	[4c	4f	4cc
=7	=7	=7	=7	=7	=7
IV	4CC	8BB-	8c]	4f	4dd
.	.	8C	16B-	.	.
.	.	.	16A	.	.
IVb	4CC	4D	8B-	4f	4b-
.	.	.	8d	.	.
Vb	8DD	8E	8c	8g	4.cc
V7	8DD	8C	8B-	8e	.
vi7	8EE	8D	8A	8f	.
vii	8FF#	8E	8G	[8g	8b-
=8	=8	=8	=8	=8	=8
I	4GG	4F	16A	8g]	4a
.	.	.	16B-	.	.
.	.	.	4c	4f	.
V	4DD	4C	.	.	4g
.	.	.	8B-	8e	.
vi;	4EE;	4D;	4A;	4d;	4f;
vi	4EE	4D	4F	[4d	4a
=9	=9	=9	=9	=9	=9
Vb	4DD	4E	4G	8d]	4g
.	.	.	.	16c	.
.	.	.	.	16B-	.
I	4GG	8F	8F	4A	4c
.	.	8E	8G	.	.
vi	4EE	4D	4A	8d	4f
.	.	.	.	8c	.
ii	4AA	4GG	4G	8d	4b-
.	.	.	.	8e	.
=10	=10	=10	=10	=10	=10
Ib	4GG	8AA	[4c	4.f	4a
.	.	8BB-	.	.	.
V	4DD	4C	8.c]	.	4g
.	.	.	.	8e	.
.	.	.	16B-	.	.
I;	4GG;	4FF;	4A;	4c;	4f;
==	==	==	==	==	==
*-	*-	*-	*-	*-	*-
!!!CDT: 1685/3//-1750/7/28
!!!OCY: Deutschland
!!!AGN: chorale
!!!AST: Baroque
!!!AIN: vox
!!!YOY: 1941
!!!PPP: New York; London
!!!PPR: G. Schirmer
!!!ENC: David Huron
!!!EED: David Huron
!!!YEN: United States of America
!!!YER: 1992
!!!YEC: Copyright 1992 David Huron
!!!YEM: Rights to all derivative electronic formats reserved.
!!!YER: March 20, 1996
!!!AMT: simple quadruple
!!!EEV: 1.1
!!chor2scor: -l 2 -s 0.6 -o %b.pmx
